/* XPM */
static char *cd1151788e614cece692731318b0758docjtPgixHiaIvYZc[] = {
/* columns rows colors chars-per-pixel */
"42 42 2 1 ",
"  c #22B14C",
". c #B5E61D",
/* pixels */
"..........................................",
"..........................................",
"..........................................",
"..........................................",
"..........................................",
"..........................................",
"..........................................",
"............................. ............",
"............................. ............",
"............... ............ . ...........",
".............. .............. ............",
"............... ..........................",
"..........................................",
"..........................................",
"..........................................",
"..........................................",
"..........................................",
".................. ..... .................",
".................. . ... .................",
"................. .. .. ..................",
"................... ......................",
"............................ .............",
"......... .................. .............",
"......... ................. ..............",
"........  ................................",
"..........................................",
"..........................................",
"..........................................",
".................................. .......",
".................................. .......",
"................................. ........",
"..........................................",
"............... ..........................",
"............... ..........................",
".............. ...........................",
"..........................................",
"..........................................",
"..........................................",
"..........................................",
"..........................................",
"..........................................",
".........................................."
};
