/* XPM */
static char *_da4789703bf4d43dacd135c832678d8OxMUy4ztpsDbiKbs[] = {
/* columns rows colors chars-per-pixel */
"42 42 5 1 ",
"  c black",
". c #22B14C",
"X c #B5E61D",
"o c #FFC90E",
"O c #FFF200",
/* pixels */
"XXXXXXXXXXXXXXXXXXXXXXXXXXXXXXXXXXXXXXXXXX",
"XXXXXXXXXXXXXXXXXXXXXXXXXXXXXXXXXXXXXXXXXX",
"XXXXXXXXXXXXXXXXXXXXXXXXXXXXXXXXXXXXXXXXXX",
"XXXXXXXXXXXXXXXXXXXXXXXXXXXXXXXXXXXXXXXXXX",
"XXXXXXXXXXXXXXXXXXXXXXXXXXXXXXXXXXXXXXXXXX",
"XXXXXXXXXXXXXXXXXXXXXXXXXXXXXXXXXXXXXXXXXX",
"XXXXXXXXXXXXXXXXXXXXXXXXXXXXXXXXXXXXXXXXXX",
"XXXXXXXXXXXXXXXXXXXXXXXXXXXXX.XXXXXXXXXXXX",
"XXXXXXXXXXXXXXXXXXXXXXXXXXXXX.XXXXXXXXXXXX",
"XXXXXXXXXXXXXXX.XXXXXXXXXXXX.X.XXXXXXXXXXX",
"XXXXXXXXXXXXXX.XXXXXXXXXXXXXX.XXXXXXXXXXXX",
"XXXXXXXXXXXXXXX.XXXXXXXXXXXXXXXXXXXXXXXXXX",
"XXXXXXXXXXXXXXXXXXXXXXXXXXXXXXXXXXXXXXXXXX",
"XXXXXXXXXXXXXXXXXXXXXXXXXXXXXXXXXXXXXXXXXX",
"XXXXXXXXXXXXXXXXXXXXXXXXXXXXXXXXXXXXXXXXXX",
"XXXXXXXXXXXXXXXXXX      XXXXXXXXXXXXXXXXXX",
"XXXXXXXXXXXXXXXXX oooooo XXXXXXXXXXXXXXXXX",
"XXXXXXXXXXXXXXXX ooOOOOoo XXXXXXXXXXXXXXXX",
"XXXXXXXXXXXXXXXX oOOOOOOo XXXXXXXXXXXXXXXX",
"XXXXXXXXXXXXXXXX oOOooOOo XXXXXXXXXXXXXXXX",
"XXXXXXXXXXXXXXXX oOOOoOOo XXXXXXXXXXXXXXXX",
"XXXXXXXXXXXXXXXX oOOoOOOo XXXXXXXXXXXXXXXX",
"XXXXXXXXX.XXXXXX oOOooOOo XX.XXXXXXXXXXXXX",
"XXXXXXXXX.XXXXXX oOOOOOOo X.XXXXXXXXXXXXXX",
"XXXXXXXX..XXXXXX ooOOOOoo XXXXXXXXXXXXXXXX",
"XXXXXXXXXXXXXXXXX oooooo XXXXXXXXXXXXXXXXX",
"XXXXXXXXXXXXXXXXXX      XXXXXXXXXXXXXXXXXX",
"XXXXXXXXXXXXXXXXXXXXXXXXXXXXXXXXXXXXXXXXXX",
"XXXXXXXXXXXXXXXXXXXXXXXXXXXXXXXXXX.XXXXXXX",
"XXXXXXXXXXXXXXXXXXXXXXXXXXXXXXXXXX.XXXXXXX",
"XXXXXXXXXXXXXXXXXXXXXXXXXXXXXXXXX.XXXXXXXX",
"XXXXXXXXXXXXXXXXXXXXXXXXXXXXXXXXXXXXXXXXXX",
"XXXXXXXXXXXXXXX.XXXXXXXXXXXXXXXXXXXXXXXXXX",
"XXXXXXXXXXXXXXX.XXXXXXXXXXXXXXXXXXXXXXXXXX",
"XXXXXXXXXXXXXX.XXXXXXXXXXXXXXXXXXXXXXXXXXX",
"XXXXXXXXXXXXXXXXXXXXXXXXXXXXXXXXXXXXXXXXXX",
"XXXXXXXXXXXXXXXXXXXXXXXXXXXXXXXXXXXXXXXXXX",
"XXXXXXXXXXXXXXXXXXXXXXXXXXXXXXXXXXXXXXXXXX",
"XXXXXXXXXXXXXXXXXXXXXXXXXXXXXXXXXXXXXXXXXX",
"XXXXXXXXXXXXXXXXXXXXXXXXXXXXXXXXXXXXXXXXXX",
"XXXXXXXXXXXXXXXXXXXXXXXXXXXXXXXXXXXXXXXXXX",
"XXXXXXXXXXXXXXXXXXXXXXXXXXXXXXXXXXXXXXXXXX"
};
