/* XPM */
static char *_c00e320f74f4991e6897e62f8bac2643X3TD3LYU4WG1QQj[] = {
/* columns rows colors chars-per-pixel */
"42 42 4 1 ",
"  c #22B14C",
". c #B5E61D",
"X c #C3C3C3",
"o c white",
/* pixels */
"..........................................",
"..........................................",
"..........................................",
"..........................................",
"..........................................",
"..........................................",
"..........................................",
"............................. ............",
"............................. ............",
"............... ............ . ...........",
".............. .............. ............",
"............XXXXXXXXXXXXXXXXXX............",
"...........XXooooooooooooooooXX...........",
"...........XooooooooooooooooooX...........",
"...........XooooooooooooooooooX...........",
"...........XooooooooooooooooooX...........",
"...........XooooooooooooooooooX...........",
"...........XooooooooooooooooooX...........",
"...........XooooooooooooooooooX...........",
"...........XooooooooooooooooooX...........",
"...........XooooooooooooooooooX...........",
"...........XooooooooooooooooooX...........",
"......... .XooooooooooooooooooX...........",
"......... .XooooooooooooooooooX...........",
"........  .XooooooooooooooooooX...........",
"...........XooooooooooooooooooX...........",
"...........XooooooooooooooooooX...........",
"...........XooooooooooooooooooX...........",
"...........XooooooooooooooooooX... .......",
"...........XXooooooooooooooooXX... .......",
"............XXXXXXXXXXXXXXXXXX... ........",
"..........................................",
"............... ..........................",
"............... ..........................",
".............. ...........................",
"..........................................",
"..........................................",
"..........................................",
"..........................................",
"..........................................",
"..........................................",
".........................................."
};
