/* XPM */
static char *c0a10f38f5ee47e4a61539326c626e2bJqCpY6vzP72GRy54[] = {
/* columns rows colors chars-per-pixel */
"42 42 30 1 ",
"  c None",
". c black",
"X c #040707",
"o c #29281B",
"O c #2A281C",
"+ c #353220",
"@ c #3C3823",
"# c #444026",
"$ c #57502C",
"% c #45433D",
"& c #665D2F",
"* c #706630",
"= c #726830",
"- c #746930",
"; c #4A4941",
": c #4B4942",
"> c #4E4D44",
", c #736F55",
"< c #837630",
"1 c #A49331",
"2 c #B7A330",
"3 c #CAB329",
"4 c #F4DB0E",
"5 c #928A59",
"6 c #928B5A",
"7 c #B0A356",
"8 c #B8AB53",
"9 c #BBAC52",
"0 c #BBAD52",
"q c #C3B34D",
/* pixels */
"                ..........                ",
"                ..........                ",
"           ....................           ",
"          ......................          ",
"          ......................          ",
"        ..>::5888888888888885::>..        ",
"        ..:..q44444444444444q..:..        ",
"        ..%..q44444444444444q..%..        ",
"     .....,44444444444444444444,.....     ",
"     .....,44444444444444444444,.....     ",
"   ..>:%,,7444444444444444444447,,%:>..   ",
"  ...:..44444444444444444444444444..:...  ",
"  ...:..44444444444444444444444444..:...  ",
"  ...5qq44444XXOXX&4444&XXoXX44444qq5...  ",
"  ...84444444XXOXX&4444&XXoXX44444448...  ",
"   ..04444444OO@++<4444*OO#++44444440..   ",
"  ...84444444XX+4444444&XX14444444448...  ",
"  ...84444444XX+4444444&XX14444444448...  ",
".....84444444&&<44444441&&34444444448.....",
".....84444444444444444444444444444448.....",
".....84444444444444444444444444444448.....",
".....84444444444444444444444444444448.....",
".....84444444444444444444444444444448.....",
".....84444444444444444444444444444448.....",
"  ...84444444444444444444444444444448...  ",
"  ...84444444444444444444444444444448...  ",
"   ..04444=++2444444444444442++=44440..   ",
"  ...84444$XX1444444444444441XX$44448...  ",
"  ...5qq44$XX-11111111111111-XX$44qq5...  ",
"  ...:..44444XXXXXXXXXXXXXXXX44444..:...  ",
"  ...:..44444XXXXXXXXXXXXXXXX44444..:...  ",
"   ..>:%,,744&&&&&&&&&&&&&&&&447,,%:>..   ",
"     .....,44444444444444444444,.....     ",
"     .....,44444444444444444444,.....     ",
"        ..%..q44444444444444q..%..        ",
"        ..:..q44444444444444q..:..        ",
"        ..>::5888888888888885::>..        ",
"          ......................          ",
"          ......................          ",
"           ....................           ",
"                ..........                ",
"                ..........                "
};
