/* XPM */
static char *_0b94141cee24dffe3c3588e3a5e47c4kAQ30BoWxiFX8ciW[] = {
/* columns rows colors chars-per-pixel */
"42 42 26 1 ",
"  c None",
". c black",
"X c #040707",
"o c #29281B",
"O c #2A281C",
"+ c #353220",
"@ c #444026",
"# c #45433D",
"$ c #665D2F",
"% c #70662F",
"& c #706630",
"* c #4A4941",
"= c #4B4942",
"- c #4E4D44",
"; c #736F55",
": c #817531",
"> c #A49331",
", c #CAB329",
"< c #F4DB0E",
"1 c #928A59",
"2 c #928B5A",
"3 c #B0A356",
"4 c #B8AB53",
"5 c #BBAC52",
"6 c #BBAD52",
"7 c #C3B34D",
/* pixels */
"                ..........                ",
"                ..........                ",
"           ....................           ",
"          ......................          ",
"          ......................          ",
"        ..-==1444444444444441==-..        ",
"        ..=..7<<<<<<<<<<<<<<7..=..        ",
"        ..#..7<<<<<<<<<<<<<<7..#..        ",
"     .....;<<<<<<<<<<<<<<<<<<<<;.....     ",
"     .....;<<<<<<<<<<<<<<<<<<<<;.....     ",
"   ..-=#;;3<<<<<<<<<<<<<<<<<<<<3;;#=-..   ",
"  ...=..<<<<<<<<<<<<<<<<<<<<<<<<<<..=...  ",
"  ...=..<<<<<<<<<<<<<<<<<<<<<<<<<<..=...  ",
"  ...177<<<<<XX+<<<<<<<$XX><<<<<<<771...  ",
"  ...4<<<<<<<XX+<<<<<<<$XX><<<<<<<<<4...  ",
"   ..6<<<<<<<OO@>>,<<<<&OO:>><<<<<<<6..   ",
"  ...4<<<<<<<XXOXX$<<<<$XXoXX<<<<<<<4...  ",
"  ...4<<<<<<<XXOXX$<<<<$XXoXX<<<<<<<4...  ",
".....4<<<<<<<$$&$$><<<<>$$%$$<<<<<<<4.....",
".....4<<<<<<<<<<<<<<<<<<<<<<<<<<<<<<4.....",
".....4<<<<<<<<<<<<<<<<<<<<<<<<<<<<<<4.....",
".....4<<<<<<<<<<<<<<<<<<<<<<<<<<<<<<4.....",
".....4<<<<<<<<<<<<<<<<<<<<<<<<<<<<<<4.....",
".....4<<<<<<<<<<<<<<<<<<<<<<<<<<<<<<4.....",
"  ...4<<<<<<<<<<<<<<<<<<<<<<<<<<<<<<4...  ",
"  ...4<<<<<<<<<<<<<<<<<<<<<<<<<<<<<<4...  ",
"   ..6<<<<<<<<<<<<<<<<<<<<<<<<<<<<<<6..   ",
"  ...4<<<<<<<<<<<<<<<<<<<<<<<<<<<<<<4...  ",
"  ...177<<<<<>>>>>>>>>>>>>>>><<<<<771...  ",
"  ...=..<<<<<XXXXXXXXXXXXXXXX<<<<<..=...  ",
"  ...=..<<<<<XXXXXXXXXXXXXXXX<<<<<..=...  ",
"   ..-=#;;3<<$$$$$$$$$$$$$$$$<<3;;#=-..   ",
"     .....;<<<<<<<<<<<<<<<<<<<<;.....     ",
"     .....;<<<<<<<<<<<<<<<<<<<<;.....     ",
"        ..#..7<<<<<<<<<<<<<<7..#..        ",
"        ..=..7<<<<<<<<<<<<<<7..=..        ",
"        ..-==1444444444444441==-..        ",
"          ......................          ",
"          ......................          ",
"           ....................           ",
"                ..........                ",
"                ..........                "
};
