/* XPM */
static char *_8a7dbe3bec14c2cc30b89f7b120a1d3Tb0JETIu52Q6cUt7[] = {
/* columns rows colors chars-per-pixel */
"42 42 5 1 ",
"  c black",
". c #22B14C",
"X c #B5E61D",
"o c #3F48CC",
"O c #00A2E8",
/* pixels */
"XXXXXXXXXXXXXXXXXXXXXXXXXXXXXXXXXXXXXXXXXX",
"XXXXXXXXXXXXXXXXXXXXXXXXXXXXXXXXXXXXXXXXXX",
"XXXXXXXXXXXXXXXXXXXXXXXXXXXXXXXXXXXXXXXXXX",
"XXXXXXXXXXXXXXXXXXXXXXXXXXXXXXXXXXXXXXXXXX",
"XXXXXXXXXXXXXXXXXXXXXXXXXXXXXXXXXXXXXXXXXX",
"XXXXXXXXXXXXXXXXXXXXXXXXXXXXXXXXXXXXXXXXXX",
"XXXXXXXXXXXXXXXXXXXXXXXXXXXXXXXXXXXXXXXXXX",
"XXXXXXXXXXXXXXXXXXXXXXXXXXXXX.XXXXXXXXXXXX",
"XXXXXXXXXXXXXXXXXXXXXXXXXXXXX.XXXXXXXXXXXX",
"XXXXXXXXXXXXXXX.XXXXXXXXXXXX.X.XXXXXXXXXXX",
"XXXXXXXXXXXXXX.XXXXXXXXXXXXXX.XXXXXXXXXXXX",
"XXXXXXXXXXXXXXX.XXXXXXXXXXXXXXXXXXXXXXXXXX",
"XXXXXXXXXXXXXXXXXXXXXXXXXXXXXXXXXXXXXXXXXX",
"XXXXXXXXXXXXXX              XXXXXXXXXXXXXX",
"XXXXXXXXXXXXX oooooooooooooo XXXXXXXXXXXXX",
"XXXXXXXXXXXXX oOOOOOOOOOOOOo XXXXXXXXXXXXX",
"XXXXXXXXXXXXX oOOOOOOOOOOOOo XXXXXXXXXXXXX",
"XXXXXXXXXXXXX oOOOOOOOOOOOOo XXXXXXXXXXXXX",
"XXXXXXXXXXXXX oOOOOOOOOOOOOo XXXXXXXXXXXXX",
"XXXXXXXXXXXXX oOOOOOOOOOOOOo XXXXXXXXXXXXX",
"XXXXXXXXXXXXX oOOOOOOOOOOOOo XXXXXXXXXXXXX",
"XXXXXXXXXXXXX oOOOOOOOOOOOOo XXXXXXXXXXXXX",
"XXXXXXXXX.XXX oOOOOOOOOOOOOo XXXXXXXXXXXXX",
"XXXXXXXXX.XXX oOOOOOOOOOOOOo XXXXXXXXXXXXX",
"XXXXXXXX..XXX oOOOOOOOOOOOOo XXXXXXXXXXXXX",
"XXXXXXXXXXXXX oOOOOOOOOOOOOo XXXXXXXXXXXXX",
"XXXXXXXXXXXXX oOOOOOOOOOOOOo XXXXXXXXXXXXX",
"XXXXXXXXXXXXX oooooooooooooo XXXXXXXXXXXXX",
"XXXXXXXXXXXXXX              XXXXXX.XXXXXXX",
"XXXXXXXXXXXXXXXXXXXXXXXXXXXXXXXXXX.XXXXXXX",
"XXXXXXXXXXXXXXXXXXXXXXXXXXXXXXXXX.XXXXXXXX",
"XXXXXXXXXXXXXXXXXXXXXXXXXXXXXXXXXXXXXXXXXX",
"XXXXXXXXXXXXXXX.XXXXXXXXXXXXXXXXXXXXXXXXXX",
"XXXXXXXXXXXXXXX.XXXXXXXXXXXXXXXXXXXXXXXXXX",
"XXXXXXXXXXXXXX.XXXXXXXXXXXXXXXXXXXXXXXXXXX",
"XXXXXXXXXXXXXXXXXXXXXXXXXXXXXXXXXXXXXXXXXX",
"XXXXXXXXXXXXXXXXXXXXXXXXXXXXXXXXXXXXXXXXXX",
"XXXXXXXXXXXXXXXXXXXXXXXXXXXXXXXXXXXXXXXXXX",
"XXXXXXXXXXXXXXXXXXXXXXXXXXXXXXXXXXXXXXXXXX",
"XXXXXXXXXXXXXXXXXXXXXXXXXXXXXXXXXXXXXXXXXX",
"XXXXXXXXXXXXXXXXXXXXXXXXXXXXXXXXXXXXXXXXXX",
"XXXXXXXXXXXXXXXXXXXXXXXXXXXXXXXXXXXXXXXXXX"
};
