/* XPM */
static char *_2e48b64abcb4e5cf7553408f634ca568GkBAnNNGEcEbSc7[] = {
/* columns rows colors chars-per-pixel */
"42 42 32 1 ",
"  c None",
". c black",
"X c #040707",
"o c #29281B",
"O c #2A281C",
"+ c #353220",
"@ c #3C3823",
"# c #444026",
"$ c #57502C",
"% c #45433D",
"& c #61592E",
"* c #665D2F",
"= c #706630",
"- c #746930",
"; c #4A4941",
": c #4B4942",
"> c #4E4D44",
", c #736F55",
"< c #837630",
"1 c #968631",
"2 c #A49331",
"3 c #B7A330",
"4 c #CAB329",
"5 c #F4DB0E",
"6 c #E0C720",
"7 c #928A59",
"8 c #928B5A",
"9 c #B0A356",
"0 c #B8AB53",
"q c #BBAC52",
"w c #BBAD52",
"e c #C3B34D",
/* pixels */
"                ..........                ",
"                ..........                ",
"           ....................           ",
"          ......................          ",
"          ......................          ",
"        ..>::7000000000000007::>..        ",
"        ..:..e55555555555555e..:..        ",
"        ..%..e55555555555555e..%..        ",
"     .....,55555555555555555555,.....     ",
"     .....,55555555555555555555,.....     ",
"   ..>:%,,9555555555555555555559,,%:>..   ",
"  ...:..55555555555555555555555555..:...  ",
"  ...:..55555555555555555555555555..:...  ",
"  ...7ee55555XXOXX*5555*XXoXX55555ee7...  ",
"  ...05555555XXOXX*5555*XXoXX55555550...  ",
"   ..w5555555++#OO=5555<++@OO5555555w..   ",
"  ...05555555552XX*5555555+XX55555550...  ",
"  ...05555555552XX*5555555+XX55555550...  ",
".....05555555554**25555555<**55555550.....",
".....05555555555555555555555555555550.....",
".....05555555555555555555555555555550.....",
".....05555555555555555555555555555550.....",
".....05555555555555555555555555555550.....",
".....054**1555555555555555555551**450.....",
"  ...052XX$55555555555555555555$XX250...  ",
"  ...052XX$55555555555555555555$XX250...  ",
"   ..w5622&++3555555555555553++&2265w..   ",
"  ...05555$XX2555555555555552XX$55550...  ",
"  ...7ee55$XX-22222222222222-XX$55ee7...  ",
"  ...:..55555XXXXXXXXXXXXXXXX55555..:...  ",
"  ...:..55555XXXXXXXXXXXXXXXX55555..:...  ",
"   ..>:%,,955****************559,,%:>..   ",
"     .....,55555555555555555555,.....     ",
"     .....,55555555555555555555,.....     ",
"        ..%..e55555555555555e..%..        ",
"        ..:..e55555555555555e..:..        ",
"        ..>::7000000000000007::>..        ",
"          ......................          ",
"          ......................          ",
"           ....................           ",
"                ..........                ",
"                ..........                "
};
