/* XPM */
static char *_5473cd838ca4effc411450c2e04d0b1nBchSx67iqcmBD2l[] = {
/* columns rows colors chars-per-pixel */
"42 42 4 1 ",
"  c gray50",
". c #22B14C",
"X c #B5E61D",
"o c #C3C3C3",
/* pixels */
"XXXXXXXXXXXXXXXXXXXXXXXXXXXXXXXXXXXXXXXXXX",
"XXX....................................XXX",
"XX..oooooooooooooooooooooooooooooooooo..XX",
"X..oooooooooooooooooooooooooooooooooooo..X",
"X.oooo                              oooo.X",
"X.ooo                                ooo.X",
"X.oo                                  oo.X",
"X.oo                                  oo.X",
"X.oo                                  oo.X",
"X.oo                                  oo.X",
"X.oo                                  oo.X",
"X.oo                                  oo.X",
"X.oo                                  oo.X",
"X.oo                                  oo.X",
"X.oo                                  oo.X",
"X.oo                                  oo.X",
"X.oo                                  oo.X",
"X.oo                                  oo.X",
"X.oo                                  oo.X",
"X.oo                                  oo.X",
"X.oo                                  oo.X",
"X.oo                                  oo.X",
"X.oo                                  oo.X",
"X.oo                                  oo.X",
"X.oo                                  oo.X",
"X.oo                                  oo.X",
"X.oo                                  oo.X",
"X.oo                                  oo.X",
"X.oo                                  oo.X",
"X.oo                                  oo.X",
"X.oo                                  oo.X",
"X.oo                                  oo.X",
"X.oo                                  oo.X",
"X.oo                                  oo.X",
"X.oo                                  oo.X",
"X.oo                                  oo.X",
"X.ooo                                ooo.X",
"X.oooo                              oooo.X",
"X..oooooooooooooooooooooooooooooooooooo..X",
"XX..oooooooooooooooooooooooooooooooooo..XX",
"XXX....................................XXX",
"XXXXXXXXXXXXXXXXXXXXXXXXXXXXXXXXXXXXXXXXXX"
};
